X:0574
M:C|
L:1/8
Q:1/2=104
K:G
d|g2 gg     f2ff|efge (e2d2)|g2  bg f2af|efge {e}d4  |
  ec e2     dBd2|cBAG  Bcd2 |B2  dB cBAG|EAGF    G2G|]

